X:1
T:Title
%%score { 1 | ( 2 3 ) }
L:1/8
M:4/4
K:Ab
V:1 treble nm="Grand Piano"
V:2 bass 
V:3 bass 
V:1
 z4 z2[Q:1/4=96] [Ec][DB] | [CA]2 [CE]2 [CE]2 [EA][EG] | [DF]2 [FB]2 [FB]2 [FB][FA] | %3
 [EG][Ge]Fd c2 B2 | [CA]4 [CE]2 [Ec][DB] | [CA]2 [CE]2 [CE]2 [EA][EG] | %6
 [DF]2 [FB]2 [FB]2 [FB][FA] | [EG][Ge]Fd c2 G2 |[M:3/4] B4 [CA]2 |[M:1/4] cd |[M:4/4] e2 AB c2 dc | %11
 [DFB]2 [B,F]2 [DFB]2 [B,FB][B,FA] | GGGG GGFE | [EA]2 [EB][EB] [Ec]2 cd | e2 AB c2 dc | %15
[M:9/8] [DFB]2 [B,F]- [B,F] [Fd]2- [Fd][FB][FA] |[M:4/4] [EG][Ge]Fd c2 G2 |[M:3/4] B4 [CA]2 |] %18
V:2
 z4 z2 [A,,E,]2 | [A,,E,]2 [A,,A,]2 [A,,A,]2 [C,A,][C,A,] | [D,A,]2 [D,D]2 [D,D]2 [=D,B,][D,B,] | %3
 [E,B,][E,B,][E,B,][E,B,F] [E,A,E]2 [E,G,D]2 | [A,,A,]4 [A,,A,]2 [A,,A,]2 | %5
 [A,,E,]2 [A,,A,]2 [A,,A,]2 [C,A,][C,A,] | [D,A,]2 [D,D]2 [D,D]2 [=D,B,][D,B,] | %7
 [E,B,][E,B,][E,B,][E,B,F] [E,A,E]2 [E,B,D]2 |[M:3/4] [E,G,D]4 [A,,A,]2 | %9
[M:1/4][K:treble] [A,E][A,B,E] |[M:4/4] [A,CE]2 [A,CE][A,DE] [A,EA]2 FE | D,2 D,2 D,2 =D,D, | %12
 [E,B,E][E,B,E][E,B,E][E,B,E] [E,B,E][E,B,E][E,A,B,][D,G,B,] | %13
 [C,A,]2 [B,,G,][B,,G,] [A,,A,]2[K:treble] [A,E][A,B,E] | [A,CE]2 [A,CE][A,DE] [A,EA]2 FE | %15
[M:9/8][K:bass] D,2 D,- D, [D,B,]2- [D,B,][D,B,][D,B,] | %16
[M:4/4] [E,B,][E,B,][E,B,][E,B,F] [E,A,E]2 [E,B,D]2 |[M:3/4] [E,G,D]4 [A,,A,]2 |] %18
V:3
 x8 | x8 | x8 | x8 | x8 | x8 | x8 | x8 |[M:3/4] x6 |[M:1/4][K:treble] x2 |[M:4/4] z4 z2 A,2 | x8 | %12
 x8 | x6[K:treble] x2 | z4 z2 A,2 |[M:9/8][K:bass] x9 |[M:4/4] x8 |[M:3/4] x6 |] %18

